assets/images/blog-icon.svg

<svg width="5" height="10" viewBox="0 0 5 10" fill="none" xmlns="http://www.w3.org/2000/svg">
<g id="icon">
<path id="icon_2" d="M0.158658 9.83771C0.370205 10.0541 0.713188 10.0541 0.924735 9.83771L4.52402 6.15605C5.15848 5.50706 5.15868 4.45491 4.52446 3.80568L0.965333 0.16229C0.753788 -0.0540967 0.410804 -0.0540967 0.199258 0.16229C-0.0122874 0.378678 -0.0122874 0.729511 0.199258 0.945898L3.75931 4.58743C3.97086 4.80382 3.97086 5.15465 3.75931 5.37104L0.158658 9.0541C-0.0528872 9.27049 -0.0528872 9.62132 0.158658 9.83771Z" fill="#151618"/>
</g>
</svg>

<svg width="5" height="10" fill="none" xmlns="http://www.w3.org/2000/svg"><path d="M.159 9.838a.533.533 0 0 0 .766 0l3.599-3.682a1.69 1.69 0 0 0 0-2.35L.965.162a.533.533 0 0 0-.766 0 .563.563 0 0 0 0 .784l3.56 3.641a.563.563 0 0 1 0 .784L.16 9.054a.563.563 0 0 0 0 .784Z" fill="#151618"/></svg>
